X:1
T:F minor Daniel Read, 1785 (Revised 1804)
T:Isaac Watts, 1709 (Hymn 158, Book 2)  88. 88. (L. M.) 
T:Windham No Copyright. Transcribed from The Columbian Harmonist, 1807.
%%score [ 1 2 3 4 ]
L:1/8
M:4/4
K:Ab
V:1 treble nm="Treble" snm="Tr."
V:2 treble nm="Counter" snm="C."
V:3 treble-8 nm="Tenor" snm="T."
V:4 bass nm="Bass" snm="B."
V:1
"^1. Broad is the road that leads to death,  And thousands walk together there;   But  wisdom shows a narrow path,      With  here and there   a    traveler." c8 | %1
 c2 B2 A4 | A4 c2 c2 | d8- | d4 d4 | c2 e2 f4 | e4 e2 d2 | c8- | c4 c4 | c2 c2 c4 | c4 d2 c2 | %11
 c8- | c4 f4 | c2 B2 cd ed | c4 c4 | c8 |] %16
V:2
"^2. \"Deny  thyself,  and take thy cross,\"    Is  the Redeemer's great command;    Nature must count her gold but dross,  If she would gain this heav'nly land." F8 | %1
 F2 E2 E4 | F4 E2 E2 | F8 | z4 F4 | F2 E2 A4 | A4 E2 F2 | G8 | z4 E4 | C2 E2 E4 | F4 F2 G2 | A8 | %12
 z4 F4 | A2 G2 F2 G2 | F4 E4 | F8 |] %16
V:3
"^3. The fearful soul that tires and faints,   And walks the ways of God no more,    Is  but  esteemed  almost  a saint,     And makes his own destruction sure." F8 | %1
 A2 B2 c4 | c4 A2 G2 | F8 | z4 F4 | A2 G2 A4 | c4 B2 A2 | G8 | z4 G4 | A2 B2 c4 | f4 f2 ^e2 | f8 | %12
 z4 c4 | c2 d2 c2 B2 | A4 G4 | F8 |] %16
V:4
"^4. Lord, let not all my hopes be vain;          Create my heart entirely new;            Which hypocrites could ne'er attain,     Which false apostates never knew." F,8 | %1
 F,2 G,2 A,4 | F,4 C,2 C,2 | F,8- | F,4 F,4 | F,2 C,2 F,4 | A,4 G,2 F,2 | C,8- | C,4 C,4 | %9
 F,2 E,2 A,4 | F,4 B,2 C2 | F,8- | F,4 F,4 | F,2 G,2 A,2 E,2 | F,4 C,4 | [F,,F,]8 |] %16

